src/assets/facebook.svg

<svg width="11" height="20" viewBox="0 0 11 20" fill="none" xmlns="http://www.w3.org/2000/svg">
<path d="M11 0H8C6.67392 0 5.40215 0.526784 4.46447 1.46447C3.52678 2.40215 3 3.67392 3 5V8H0V12H3V20H7V12H10L11 8H7V5C7 4.73478 7.10536 4.48043 7.29289 4.29289C7.48043 4.10536 7.73478 4 8 4H11V0Z" fill="white"/>
</svg>

<svg width="11" height="20" fill="none" xmlns="http://www.w3.org/2000/svg"><path d="M11 0H8a5 5 0 0 0-5 5v3H0v4h3v8h4v-8h3l1-4H7V5a1 1 0 0 1 1-1h3V0Z" fill="#fff"/></svg>
